_inc/images/buttons/playstation/button_cross.svg

<?xml version="1.0" encoding="UTF-8"?>
<svg width="64" height="64" version="1.1" viewBox="0 0 64 64" xmlns="http://www.w3.org/2000/svg">
 <circle id="outline" cx="32" cy="32" r="28" fill="none" stroke="#fff" stroke-width="2"/>
 <path id="button_xing" d="m32 4a28 28 0 0 0-28 28 28 28 0 0 0 28 28 28 28 0 0 0 28-28 28 28 0 0 0-28-28zm-14.021 11.98a2.0002 2.0002 0 0 1 1.4355 0.60547l12.586 12.586 12.586-12.586a2.0002 2.0002 0 0 1 1.375-0.60547 2.0002 2.0002 0 0 1 1.4531 3.4336l-12.586 12.586 12.586 12.586a2.0002 2.0002 0 1 1-2.8281 2.8281l-12.586-12.586-12.586 12.586a2.0002 2.0002 0 1 1-2.8281-2.8281l12.586-12.586-12.586-12.586a2.0002 2.0002 0 0 1 1.3926-3.4336z" fill="#fff"/>
</svg>

<svg xmlns="http://www.w3.org/2000/svg" width="64" height="64" viewBox="0 0 64 64"><circle cx="32" cy="32" r="28" fill="none" stroke="#fff" stroke-width="2"/><path fill="#fff" d="M32 4A28 28 0 0 0 4 32a28 28 0 0 0 28 28 28 28 0 0 0 28-28A28 28 0 0 0 32 4M17.979 15.98a2 2 0 0 1 1.436.605L32 29.171l12.586-12.586a2 2 0 0 1 1.374-.605 2 2 0 0 1 1.454 3.434L34.829 32l12.586 12.586a2 2 0 1 1-2.828 2.828L32 34.828 19.416 47.414a2 2 0 1 1-2.829-2.828L29.172 32 16.586 19.414a2 2 0 0 1 1.393-3.434"/></svg>
